images/svg/stars.svg

<svg width="55" height="74" viewBox="0 0 55 74" fill="none" xmlns="http://www.w3.org/2000/svg">
<g opacity="0.3">
<path d="M9.04918 27.2857L0 29.5714L9.04918 31.8571L11.3115 41L13.9508 31.8571L23 29.5714L13.9508 27.2857L10.9344 17L9.04918 27.2857Z" fill="#1E2438"/>
<path d="M47.1148 35L42 36.3333L47.1148 37.6667L48.3934 43L49.8852 37.6667L55 36.3333L49.8852 35L48.1803 29L47.1148 35Z" fill="#1E2438"/>
<path d="M17.7541 66.4286L15 67.1905L17.7541 67.9524L18.4426 71L19.2459 67.9524L22 67.1905L19.2459 66.4286L18.3279 63L17.7541 66.4286Z" fill="#1E2438"/>
<path d="M4.32787 66L0 67.3333L4.32787 68.6667L5.40984 74L6.67213 68.6667L11 67.3333L6.67213 66L5.22951 60L4.32787 66Z" fill="#1E2438"/>
<path d="M27.9016 6.85714L22 8.38095L27.9016 9.90476L29.377 16L31.0984 9.90476L37 8.38095L31.0984 6.85714L29.1311 0L27.9016 6.85714Z" fill="#1E2438"/>
<path d="M34.7541 26.4286L32 27.1905L34.7541 27.9524L35.4426 31L36.2459 27.9524L39 27.1905L36.2459 26.4286L35.3279 23L34.7541 26.4286Z" fill="#1E2438"/>
</g>
</svg>

<svg xmlns="http://www.w3.org/2000/svg" width="55" height="74" fill="none"><g fill="#1E2438" opacity=".3"><path d="M9.05 27.286 0 29.57l9.05 2.286L11.31 41l2.64-9.143L23 29.571l-9.05-2.285L10.935 17 9.05 27.286ZM47.115 35 42 36.333l5.115 1.334L48.393 43l1.492-5.333L55 36.333 49.885 35l-1.705-6-1.065 6ZM17.754 66.429 15 67.19l2.754.762.689 3.048.803-3.048L22 67.191l-2.754-.762L18.328 63l-.574 3.429ZM4.328 66 0 67.333l4.328 1.334L5.41 74l1.262-5.333L11 67.333 6.672 66 5.23 60l-.902 6ZM27.902 6.857 22 8.381l5.902 1.524L29.377 16l1.721-6.095L37 8.38l-5.902-1.524L29.131 0l-1.23 6.857ZM34.754 26.429 32 27.19l2.754.761.689 3.048.803-3.048L39 27.19l-2.754-.761L35.328 23l-.574 3.429Z"/></g></svg>
